X:172
T:Glory Glory
C:Honi Deaton and Dream (Gospel Collection)
N: Solo de Joe Clark (?) Transcribed by Philippe Colleu
R:bluegrass
L:1/8
Q:1/4=240
M:4/4
K:C
"(125 bpm)"z2 CG, CE F2 | "C"F/z/G [c2G2] [c2G2] [c2G2] | G^d ee c2 c2 | c_B GF {^D}EC D/z/E | 
_B,2 [E2B,2] B,B, B,G, | "F"{^G,}A,F FF {G}Ac cc | ^d=d cc zc cA | "C"{_B}c2 c2 cG FG | 
{^D}EC zC C=D EF | G2 [c2G2] [c2G2] [cG][cG] | {d}eg2g g2 gg | ac' c'c' c'a g2 | 
^d=d (3^d=dc G2 [c2G2] | "F"FA cc ^d=d (3^d=dc | ^d=d (3^d=dc ^d=d (3^d=dA | "C"[^f/B/]z/[gc] [g2c2] [g2c2] [gc][gc] | 
gG FG EC FE | [E2C2] [E_B,]C2G, B,=B, | C8 | 


